X:76
T:Road To Lisdoonvarna, The
R:slide
Z:id:hn-slide-76
M:6/8
L:1/8
K:Edor
E2B B2A|B2c d2A|F2A ABA|D2E FED|E2B B2A|B2c d3|cdc B2A|1 B2E E2D:|2 B2E E3 ||
|:e2f gfe|d2B Bcd|c2A ABc|d2B B3|e2f gfe|d2B Bcd|cdc B2A|1 B2E E3:|2 B2E E2D ||

